archdroid-icon-theme/Archdroid-ArchBlue/apps/scalable/evince.svg

<?xml version="1.0" encoding="UTF-8" standalone="no"?>
<svg
   xmlns:dc="http://purl.org/dc/elements/1.1/"
   xmlns:cc="http://creativecommons.org/ns#"
   xmlns:rdf="http://www.w3.org/1999/02/22-rdf-syntax-ns#"
   xmlns:svg="http://www.w3.org/2000/svg"
   xmlns="http://www.w3.org/2000/svg"
   xmlns:sodipodi="http://sodipodi.sourceforge.net/DTD/sodipodi-0.dtd"
   xmlns:inkscape="http://www.inkscape.org/namespaces/inkscape"
   width="48"
   height="48"
   viewBox="0 0 48 40"
   id="svg2"
   version="1.1"
   inkscape:version="0.91 r13725"
   sodipodi:docname="evince.svg"
   style="fill:#1793D1">
  <metadata
     id="metadata10">
    <rdf:RDF>
      <cc:Work
         rdf:about="">
        <dc:format>image/svg+xml</dc:format>
        <dc:type
           rdf:resource="http://purl.org/dc/dcmitype/StillImage" />
        <dc:title />
      </cc:Work>
    </rdf:RDF>
  </metadata>
  <defs
     id="defs8" />
  <sodipodi:namedview
     pagecolor="#ffffff"
     bordercolor="#666666"
     borderopacity="1"
     objecttolerance="10"
     gridtolerance="10"
     guidetolerance="10"
     inkscape:pageopacity="0"
     inkscape:pageshadow="2"
     inkscape:window-width="1366"
     inkscape:window-height="713"
     id="namedview6"
     showgrid="false"
     inkscape:snap-bbox="true"
     inkscape:bbox-nodes="true"
     inkscape:snap-bbox-edge-midpoints="false"
     inkscape:zoom="8.479697101403234"
     inkscape:cx="-9.595301457889931"
     inkscape:cy="1.763996743119801"
     inkscape:window-x="0"
     inkscape:window-y="30"
     inkscape:window-maximized="1"
     inkscape:current-layer="svg2"
     fit-margin-top="0"
     fit-margin-left="0"
     fit-margin-right="0"
     fit-margin-bottom="0" />
  <path
     style="opacity:1;fill:#d41818;fill-opacity:1;fill-rule:nonzero;stroke:none"
     d="M 10 6 C 7.789999999999992 6 6 7.79000000000002 6 10 L 6 36.291015625 C 7.200945085766493 35.2332279520469 9.471054773247669 33.1554551906761 12.044921875 30.69921875 C 11.03588482746736 30.10388030009773 10.1238068830129 29.41546043091993 9.30859375 28.6171875 C 8.35084183508655 27.67933751208747 7.9492095474483 26.53053256773595 7.99609375 25.291015625 C 7.988282507139423 25.12738350251922 7.987459827998 24.96234201807164 7.99609375 24.794921875 C 7.795588171777177 19.00658356735023 17.93941588429291 10.75088614285296 26.853515625 11.005859375 C 27.19567248214242 11.01564623214285 27.53322475000001 11.0367679107143 27.87109375 11.072265625 C 29.60401098874497 11.25433215881431 30.26849849878515 11.99271345450315 30.16015625 13.1015625 C 30.161085985423 13.11055117841429 30.16326310355058 13.117900716963 30.1640625 13.126953125 C 30.165040502469 13.1376862441578 30.16717324766158 13.14933438030531 30.16796875 13.16015625 C 30.16863289760793 13.169554474428 30.16939493529257 13.178034800514 30.169921875 13.1875 C 30.1768595729841 13.30502058113832 30.1739345292143 13.42709526695013 30.16015625 13.5546875 C 30.45416898729073 16.68969354700756 22.91710396720816 23.64459659906893 16.18359375 29.201171875 C 18.94433810372474 30.4967521639961 22.70441601278907 30.68617521691528 24.951171875 30.412109375 C 32.63916473214286 29.20515108928571 42 24.171875 42 24.171875 L 42 10 C 42 7.79000000000002 40.21000000000001 6 38 6 L 10 6 z M 26.17578125 11.4296875 C 26.1460095352495 11.430236331048 26.1157294906371 11.43286374764128 26.0859375 11.43359375 C 26.24512837449939 11.430814622228 26.40380664474141 11.431065025754 26.5625 11.43359375 C 26.43361857044707 11.43251935340199 26.30508783995555 11.427303778674 26.17578125 11.4296875 z M 28.8046875 11.685546875 C 28.82725637188931 11.69246337705151 28.8471691737782 11.701762055052 28.869140625 11.708984375 C 28.88293829638079 11.7135415702284 28.8985473022104 11.716025620247 28.912109375 11.720703125 C 28.87707144013256 11.7085176555361 28.8413105725126 11.6969167465121 28.8046875 11.685546875 z M 29.197265625 11.8359375 C 29.2236065282986 11.8482904828699 29.2462751049019 11.8640244990657 29.271484375 11.876953125 C 29.27841540125439 11.8805244029721 29.286123327438 11.883104037304 29.29296875 11.88671875 C 29.2614005810286 11.8699245278427 29.2306678583897 11.8517963866059 29.197265625 11.8359375 z M 25.451171875 14.115234375 C 25.47583510383 14.1216378402414 25.4966108348708 14.129039061753 25.51953125 14.13671875 C 25.50380387889849 14.1314642160261 25.4931184379829 14.12379715866 25.4765625 14.119140625 C 25.4688774635231 14.116979126747 25.459036357662 14.117266284877 25.451171875 14.115234375 z M 25.65234375 14.193359375 C 25.6729018050723 14.2043014490949 25.6922915664831 14.2161853654771 25.7109375 14.228515625 C 25.7037606211533 14.2237614137702 25.700823031382 14.215485574216 25.693359375 14.2109375 C 25.6889437531151 14.208214960073 25.684204628772 14.205774316754 25.6796875 14.203125 C 25.6720929602738 14.1987230067694 25.660224029026 14.197555807124 25.65234375 14.193359375 z M 24.685546875 14.484375 C 21.90594766793387 14.51261066685255 16.47867401785715 16.26243044642857 13.96875 20.99609375 C 13.1847187081206 22.47476133008749 12.81063279265911 23.75576476405153 12.73828125 24.86328125 C 12.86217406338814 26.29809964084803 13.55830451416891 27.39732931044026 14.583984375 28.228515625 C 19.73587612255688 23.17354407827552 25.20079365729399 17.37527725726662 25.91796875 14.880859375 C 25.80656035531033 14.66312934056943 25.5777005640317 14.5323320921714 25.205078125 14.501953125 C 25.04496338392858 14.488899321429 24.87085348880441 14.48249262221 24.685546875 14.484375 z M 16.181640625 14.5859375 C 16.1670472181814 14.594754977781 16.1512891304415 14.602483738565 16.13671875 14.611328125 C 16.139699346106 14.609519082177 16.143502812818 14.609229794391 16.146484375 14.607421875 C 16.1580761393352 14.600383131874 16.1700342920047 14.592959194561 16.181640625 14.5859375 z M 25.736328125 15.771484375 C 25.6984274277529 15.85832918166554 25.6631475873549 15.9447069235047 25.6171875 16.037109375 C 25.63467461010779 16.00192953319507 25.6535937954092 15.964068309113 25.669921875 15.9296875 C 25.67061645009358 15.928219744308 25.67118254255 15.927247540849 25.671875 15.92578125 C 25.69747620615661 15.87157024494845 25.7136528937854 15.8236676614183 25.736328125 15.771484375 z M 25.048828125 17.017578125 C 25.00130890907953 17.09080826159054 24.95048600094443 17.16522161409548 24.900390625 17.240234375 C 24.93055281645148 17.19506027861383 24.9690051422348 17.1459850651474 24.998046875 17.1015625 C 25.01658324621991 17.0731024111251 25.0307567345012 17.0457249698902 25.048828125 17.017578125 z M 12.6796875 17.1484375 C 12.6367639115474 17.18636393795999 12.5952102629768 17.2255533001208 12.552734375 17.263671875 C 12.55961178665909 17.2574928135963 12.567329526411 17.252267835946 12.57421875 17.24609375 C 12.6099154100681 17.21414648122431 12.6436760826081 17.1802492103069 12.6796875 17.1484375 z M 20.724609375 22.34375 C 20.24585920881993 22.86771619602479 19.74061982809247 23.40573584553175 19.228515625 23.9453125 C 19.47134118858091 23.68955443080588 19.71117252972118 23.43446249458586 19.947265625 23.181640625 C 20.1796170069082 22.93257183792302 20.41599652750749 22.68277058907666 20.640625 22.4375 C 20.66995905520031 22.4055017192714 20.6954187083288 22.3756740580403 20.724609375 22.34375 z M 8.18359375 23.615234375 C 8.173073542741701 23.6566082525802 8.162016217385 23.6989985858702 8.15234375 23.740234375 C 8.156779700857202 23.7213812523857 8.163355225738 23.7024760806252 8.16796875 23.68359375 C 8.173421935305297 23.6611851438048 8.177891348953001 23.637683175057 8.18359375 23.615234375 z M 12.80859375 23.76953125 C 12.803587881161 23.7994404946938 12.795597496433 23.831649650716 12.791015625 23.861328125 C 12.7843388752953 23.90435442944941 12.783137660995 23.9457377734061 12.77734375 23.98828125 C 12.7871214329322 23.91633483832861 12.7962899990724 23.8428643861411 12.80859375 23.76953125 z M 8.064453125 24.189453125 C 8.054390758662105 24.25228384037974 8.047018836477999 24.3145308244096 8.0390625 24.376953125 C 8.042078470204601 24.3534328196373 8.04746519707 24.3282668153593 8.05078125 24.3046875 C 8.056225505802297 24.26572409513443 8.058194061518 24.2285729665801 8.064453125 24.189453125 z M 42 25.484375 L 41.994140625 28.953125 L 42 28.953125 L 42 25.484375 z M 17.53515625 25.697265625 C 17.39585958256294 25.83952868440884 17.26126812057487 25.98083143844805 17.12109375 26.123046875 C 17.22158162211218 26.02115329242385 17.31987061246913 25.92028367258702 17.419921875 25.818359375 C 17.45949663397007 25.77801282114688 17.4956584867306 25.7376109350751 17.53515625 25.697265625 z M 13 26.494140625 C 13.00683781802899 26.5130429249212 13.012460602177 26.5320261406347 13.01953125 26.55078125 C 13.05193253759284 26.63680060743684 13.0878291699663 26.721717949094 13.125 26.8046875 C 13.1449763644883 26.84921318006469 13.1661816363807 26.8918933503135 13.1875 26.935546875 C 13.11821724967034 26.79253883562651 13.0546172639715 26.64656431415502 13 26.494140625 z M 13.234375 27.02734375 C 13.26873179646669 27.09391810320158 13.3024162734441 27.1620319532246 13.33984375 27.2265625 C 13.37417722638762 27.28564056025689 13.410427398547 27.3430080212054 13.447265625 27.400390625 C 13.3705973599322 27.28018519516635 13.2998769263849 27.15502546651095 13.234375 27.02734375 z M 13.83984375 27.9296875 C 13.8561891385904 27.94890178849519 13.8700732575332 27.9692868543283 13.88671875 27.98828125 C 13.94794274890591 28.05801677702602 14.0149259117409 28.1245897322683 14.080078125 28.19140625 C 13.99738555125017 28.10636203073815 13.9160711889328 28.0194864932829 13.83984375 27.9296875 z M 14.205078125 28.3203125 C 14.2109287552975 28.3259443382913 14.214824620377 28.3322804 14.220703125 28.337890625 C 14.33685764516007 28.44860498497961 14.45749310464123 28.55569763878689 14.583984375 28.658203125 C 14.45114242186969 28.55055119933498 14.32629113607277 28.43708905711818 14.205078125 28.3203125 z M 42 30.171875 C 28.90638299999998 33.90352485714286 19.60813023214284 34.25562621428574 13.458984375 31.4296875 C 9.302579089285707 34.7474513571429 6 37.1484375 6 37.1484375 L 6 38 C 6 40.20999999999998 7.789999999999992 42 10 42 L 38 42 C 40.21000000000001 42 42 40.20999999999998 42 38 L 42 30.171875 z "
     transform="translate(0,-4)"
     id="path4465" />
</svg>

<svg xmlns="http://www.w3.org/2000/svg" height="48" viewBox="0 0 48 40" fill="#1793D1"><path d="m10 6c-2.21 0-4 1.79-4 4v26.291c1.201-1.058 3.471-3.136 6.04-5.592-1.01-.595-1.921-1.284-2.736-2.082-.958-.938-1.359-2.087-1.313-3.326-.008-.164-.009-.329 0-.496-.201-5.788 9.943-14.04 18.857-13.789.342.01.68.031 1.018.066 1.733.182 2.397.92 2.289 2.029.001.009.003.016.004.025.001.011.003.022.004.033.001.009.001.018.002.027.007.118.004.24-.01.367.294 3.135-7.243 10.09-13.977 15.646 2.761 1.296 6.521 1.485 8.768 1.211 7.688-1.207 17.05-6.24 17.05-6.24v-14.172c0-2.21-1.79-4-4-4h-28m16.18 5.43c-.03.001-.06.003-.09.004.159-.003.318-.003.477 0-.129-.001-.257-.006-.387-.004m2.629.256c.023.007.042.016.064.023.014.005.029.007.043.012-.035-.012-.071-.024-.107-.035m.393.15c.026.012.049.028.074.041.007.004.015.006.021.01-.032-.017-.062-.035-.096-.051m-3.746 2.279c.025.006.045.014.068.021-.016-.005-.026-.013-.043-.018-.008-.002-.018-.002-.025-.004m.201.078c.021.011.04.023.059.035-.007-.005-.01-.013-.018-.018-.004-.003-.009-.005-.014-.008-.008-.004-.019-.006-.027-.01m-.967.291c-2.78.028-8.207 1.778-10.717 6.512-.784 1.479-1.158 2.76-1.23 3.867.124 1.435.82 2.534 1.846 3.365 5.152-5.05 10.617-10.853 11.334-13.348-.111-.218-.34-.349-.713-.379-.16-.013-.334-.019-.52-.018m-8.504.102c-.015.009-.03.017-.045.025.003-.002.007-.002.01-.004.012-.007.024-.014.035-.021m9.555 1.186c-.038.087-.073.173-.119.266.017-.035.036-.073.053-.107.001-.001.001-.002.002-.004.026-.054.042-.102.064-.154m-.688 1.246c-.048.073-.098.148-.148.223.03-.045.069-.094.098-.139.019-.028.033-.056.051-.084m-12.369.131c-.043.038-.084.077-.127.115.007-.006.015-.011.021-.018.036-.032.069-.066.105-.098m8.04 5.195c-.479.524-.984 1.062-1.496 1.602.243-.256.483-.511.719-.764.232-.249.469-.499.693-.744.029-.032.055-.062.084-.094m-12.541 1.271c-.011.041-.022.084-.031.125.004-.019.011-.038.016-.057.005-.022.01-.046.016-.068m4.625.154c-.005.03-.013.062-.018.092-.007.043-.008.084-.014.127.01-.072.019-.145.031-.219m-4.744.42c-.01.063-.017.125-.025.188.003-.024.008-.049.012-.072.005-.039.007-.076.014-.115m33.936 1.295l-.006 3.469h.006v-3.469m-24.465.213c-.139.142-.274.284-.414.426.1-.102.199-.203.299-.305.04-.04.076-.081.115-.121m-4.535.797c.007.019.012.038.02.057.032.086.068.171.105.254.02.045.041.087.063.131-.069-.143-.133-.289-.188-.441m.234.533c.034.067.068.135.105.199.034.059.071.116.107.174-.077-.12-.147-.245-.213-.373m.605.902c.016.019.03.04.047.059.061.07.128.136.193.203-.083-.085-.164-.172-.24-.262m.365.391c.006.006.01.012.016.018.116.111.237.218.363.32-.133-.108-.258-.221-.379-.338m27.795 1.852c-13.09 3.732-22.392 4.084-28.541 1.258-4.156 3.318-7.459 5.719-7.459 5.719v.852c0 2.21 1.79 4 4 4h28c2.21 0 4-1.79 4-4v-7.828" transform="translate(0-4)" fill="#d41818"/></svg>
